cdn/fa/svgs/sharp-solid/down-to-bracket.svg

<svg xmlns="http://www.w3.org/2000/svg" viewBox="0 0 448 512"><!--! Font Awesome Pro 6.5.2 by @fontawesome - https://fontawesome.com License - https://fontawesome.com/license (Commercial License) Copyright 2024 Fonticons, Inc. --><path d="M384 192L224 352 64 192l0-32 96 0L160 0 288 0l0 160 96 0 0 32zM64 352l0 96 320 0 0-96 0-32 64 0 0 32 0 128 0 32-32 0L32 512 0 512l0-32L0 352l0-32 64 0 0 32z"/></svg>

<svg xmlns="http://www.w3.org/2000/svg" viewBox="0 0 448 512"><!--! Font Awesome Pro 6.5.1 by @fontawesome - https://fontawesome.com License - https://fontawesome.com/license (Commercial License) Copyright 2023 Fonticons, Inc. --><path d="M384 192L224 352 64 192V160l96 0L160 0H288l0 160 96 0 0 32zM64 352v96H384V352 320h64v32V480v32H416 32 0V480 352 320H64v32z"/></svg>
